X:31
T:President Garfield's Hornpipe
M:C
L:1/8
B:Empire Violin Collection of Hornpipes
H:Published by Thomas Craig
H:Music Publisher, &c.
H:George Street, Aberdeen, N.B.
Z:Peter Dunk December 2011
R:hornpipe
Q:1/4=140
K:Bb
(dc) |: BFDF BFDF | BABc dcde |1fcAc fcAc | f=efg f_edc :|2 fgag fedc | B2d2Bd |!
|:ba | geBG EGBg | fdBF DFBf |1 eAgf eAgf | dBgf dB :|2 =efag f_edc | B2d2B2 |]

